assets/icons/action/new_campaign.svg

<?xml version="1.0"?><svg xmlns="http://www.w3.org/2000/svg" width="52" height="52" viewBox="0 0 52 52"><g fill="#fff"><path d="m26 2c-13.2 0-24 10.8-24 24s10.8 24 24 24 24-10.8 24-24-10.8-24-24-24z m0 42c-9.9 0-18-8.1-18-18s8.1-18 18-18 18 8.1 18 18-8.1 18-18 18z m0-32c-7.7 0-14 6.3-14 14s6.3 14 14 14 14-6.3 14-14-6.3-14-14-14z m0 22c-4.4 0-8-3.6-8-8s3.6-8 8-8 8 3.6 8 8-3.6 8-8 8z m0-12c-2.2 0-4 1.8-4 4s1.8 4 4 4 4-1.8 4-4-1.8-4-4-4z"></path></g></svg>

<svg xmlns="http://www.w3.org/2000/svg" x="0px" y="0px"
	 width="52px" height="52px" viewBox="0 0 52 52" enable-background="new 0 0 52 52" xml:space="preserve">
<g>
	<path fill="#FFFFFF" d="M26,2C12.8,2,2,12.8,2,26s10.8,24,24,24s24-10.8,24-24S39.2,2,26,2z M26,44c-9.9,0-18-8.1-18-18
		S16.1,8,26,8s18,8.1,18,18S35.9,44,26,44z"/>
	<path fill="#FFFFFF" d="M26,12c-7.7,0-14,6.3-14,14s6.3,14,14,14s14-6.3,14-14S33.7,12,26,12z M26,34c-4.4,0-8-3.6-8-8s3.6-8,8-8
		s8,3.6,8,8S30.4,34,26,34z"/>
	<path fill="#FFFFFF" d="M26,22c-2.2,0-4,1.8-4,4s1.8,4,4,4s4-1.8,4-4S28.2,22,26,22z"/>
</g>
</svg>
